dist/img/svg/top_logo_new.svg

<svg width="95" height="15" viewBox="0 0 95 15" fill="none" xmlns="http://www.w3.org/2000/svg">
<path fill-rule="evenodd" clip-rule="evenodd" d="M27.3971 5.15126C27.3107 5.20621 27.2178 5.24865 27.1209 5.27748C26.9941 5.3132 26.8632 5.3298 26.7321 5.32678C26.5832 5.33011 26.4354 5.2972 26.3 5.23054C26.1776 5.16836 26.0706 5.07605 25.9877 4.96114C25.9001 4.83669 25.8367 4.69465 25.8012 4.54344C25.7586 4.36662 25.7379 4.18452 25.7398 4.00188C25.7127 3.64446 25.8039 3.28823 25.9973 2.99568C26.1664 2.78086 26.4183 2.66132 26.6803 2.67146C26.8112 2.66987 26.942 2.6791 27.0716 2.69907C27.168 2.7138 27.2619 2.74328 27.3504 2.78663L27.4884 2.15041C27.375 2.1038 27.2578 2.06893 27.1382 2.04628C26.9667 2.01443 26.7929 1.99977 26.6189 2.0025C26.424 2.00316 26.2305 2.03739 26.0458 2.10387C25.852 2.17348 25.6747 2.28779 25.5265 2.43875C25.3603 2.61178 25.2312 2.82146 25.148 3.05327C25.0426 3.35571 24.9926 3.67715 25.0009 3.99991C24.9938 4.31387 25.0379 4.62674 25.1311 4.92446C25.205 5.15576 25.3246 5.36726 25.4816 5.54451C25.6239 5.70059 25.7982 5.8189 25.9906 5.89003C26.1874 5.96203 26.394 5.99816 26.6019 5.99692C26.7763 5.99722 26.9503 5.97898 27.1213 5.94249C27.2706 5.91486 27.4127 5.8537 27.5384 5.76302L27.3971 5.15126ZM27.7193 4.65861H29.0037V4.02752H27.7193V4.65861ZM32.0013 5.15244C31.9149 5.20739 31.822 5.24983 31.7251 5.27866C31.5983 5.31438 31.4674 5.33098 31.3363 5.32797C31.1874 5.33129 31.0396 5.29839 30.9042 5.23172C30.7818 5.16954 30.6748 5.07724 30.5919 4.96233C30.5043 4.83787 30.4409 4.69583 30.4054 4.54462C30.3627 4.3678 30.3421 4.1857 30.344 4.00307C30.3169 3.64564 30.4081 3.28941 30.6015 2.99687C30.7706 2.78205 31.0225 2.6625 31.2845 2.67264C31.4154 2.67106 31.5462 2.68029 31.6758 2.70025C31.7722 2.71498 31.8661 2.74447 31.9546 2.78782L32.0929 2.1516C31.9794 2.10504 31.8621 2.07017 31.7424 2.04747C31.5709 2.01561 31.3971 2.00095 31.2231 2.00369C31.0282 2.00435 30.8347 2.03857 30.65 2.10506C30.4562 2.17466 30.2789 2.28897 30.1307 2.43993C29.9645 2.61296 29.8354 2.82264 29.7522 3.05445C29.6468 3.35689 29.5968 3.67833 29.6051 4.00109C29.598 4.31505 29.6421 4.62793 29.7353 4.92564C29.8092 5.15695 29.9288 5.36844 30.0858 5.54569C30.2281 5.70178 30.4024 5.82009 30.5948 5.89121C30.7916 5.96321 30.9982 5.99934 31.2061 5.99811C31.3805 5.9984 31.5545 5.98017 31.7255 5.94367C31.8748 5.91604 32.0169 5.85488 32.1426 5.76421L32.0013 5.15244ZM32.3235 4.65861H33.6079V4.02752H32.3235V4.65861ZM36.6055 5.15244C36.5191 5.20739 36.4262 5.24983 36.3293 5.27866C36.2025 5.31438 36.0716 5.33098 35.9405 5.32797C35.7916 5.33129 35.6438 5.29839 35.5084 5.23172C35.386 5.16954 35.279 5.07724 35.1961 4.96233C35.1085 4.83787 35.0451 4.69583 35.0096 4.54462C34.9669 4.3678 34.9463 4.1857 34.9482 4.00307C34.9211 3.64564 35.0123 3.28941 35.2057 2.99687C35.3748 2.78205 35.6267 2.6625 35.8887 2.67264C36.0196 2.67106 36.1504 2.68029 36.28 2.70025C36.3764 2.71498 36.4703 2.74447 36.5588 2.78782L36.6971 2.1516C36.5836 2.10504 36.4663 2.07017 36.3466 2.04747C36.1751 2.01561 36.0013 2.00095 35.8273 2.00369C35.6324 2.00435 35.4389 2.03857 35.2542 2.10506C35.0604 2.17466 34.8831 2.28897 34.7349 2.43993C34.5687 2.61296 34.4396 2.82264 34.3564 3.05445C34.251 3.35689 34.201 3.67833 34.2093 4.00109C34.2022 4.31505 34.2463 4.62793 34.3395 4.92564C34.4134 5.15695 34.5329 5.36844 34.69 5.54569C34.8323 5.70178 35.0066 5.82009 35.199 5.89121C35.3958 5.96321 35.6024 5.99934 35.8103 5.99811C35.9847 5.9984 36.1587 5.98017 36.3297 5.94367C36.479 5.91604 36.6211 5.85488 36.7468 5.76421L36.6055 5.15244ZM37.1205 4.81796C37.1741 5.04584 37.2688 5.26024 37.3993 5.44906C37.5233 5.62431 37.6859 5.76378 37.8726 5.85493C38.0853 5.95481 38.3158 6.00355 38.5479 5.99771C38.9773 6.02341 39.3931 5.83152 39.6708 5.47943C39.9589 5.05089 40.0991 4.52827 40.0673 4.00109C40.0701 3.72551 40.039 3.45074 39.975 3.18383C39.9212 2.95553 39.8255 2.741 39.6936 2.55274C39.5683 2.37794 39.405 2.23861 39.2181 2.14687C39.0071 2.04737 38.7783 1.99863 38.5479 2.00408C38.1176 1.97706 37.7005 2.16911 37.4224 2.52236C37.1357 2.95161 36.9965 3.47417 37.0285 4.00109C37.0264 4.27608 37.058 4.55018 37.1223 4.81639L37.1205 4.81796ZM37.9708 2.99253C38.1861 2.67209 38.5922 2.57748 38.912 2.77322C39.0134 2.84375 39.0963 2.94099 39.1526 3.05564C39.2179 3.18806 39.2635 3.33058 39.2879 3.47808C39.318 3.64986 39.3326 3.82434 39.3317 3.99912C39.3574 4.35162 39.2862 4.70447 39.1268 5.014C38.9977 5.21853 38.7791 5.33686 38.549 5.32678C38.425 5.33039 38.3026 5.2962 38.1959 5.22817C38.0946 5.1594 38.011 5.06447 37.9528 4.95207C37.8851 4.82127 37.8376 4.67953 37.8123 4.53239C37.7804 4.35621 37.7649 4.17703 37.7663 3.99754C37.7427 3.6484 37.8137 3.29936 37.9708 2.99253ZM43.4762 5.9208H44.1772V2.07902H43.5427L42.6372 3.8236L42.4838 4.27365H42.4632L42.2944 3.83464L41.3381 2.07902H40.6985V5.9208H41.3638V3.92221L41.2612 3.16529H41.287L41.5121 3.77429L42.3154 5.21161H42.5405L43.3025 3.77982L43.5232 3.16529H43.5541L43.4773 3.92773V5.9208H43.4762ZM47.2156 2.50304C47.1415 2.37964 47.0384 2.27937 46.9166 2.21234C46.7832 2.13975 46.6398 2.09061 46.4918 2.0668C46.3302 2.03967 46.1669 2.02648 46.0034 2.02735C45.9053 2.02735 45.8055 2.02919 45.704 2.03287C45.6024 2.03656 45.5044 2.04208 45.4097 2.04944C45.3145 2.05693 45.2258 2.06601 45.1412 2.07666C45.0566 2.08731 44.9834 2.09874 44.9187 2.10979V5.89634C45.0157 5.91968 45.114 5.93615 45.2129 5.94565C45.3203 5.95669 45.426 5.96497 45.53 5.9705C45.634 5.97602 45.7312 5.97878 45.8217 5.97878H46.0423C46.2164 5.97918 46.3899 5.95706 46.5591 5.91291C46.7179 5.87274 46.8693 5.80406 47.0067 5.70978C47.1364 5.62003 47.2443 5.49831 47.3212 5.35479C47.4026 5.19829 47.4433 5.02117 47.4389 4.84202C47.4417 4.70936 47.4217 4.57727 47.38 4.45232C47.3444 4.34845 47.2896 4.25334 47.219 4.17267C47.1522 4.09493 47.0717 4.03219 46.9821 3.98808C46.889 3.94395 46.7912 3.91267 46.6908 3.89499V3.86186C46.7966 3.83724 46.8971 3.79162 46.9872 3.72736C47.0651 3.67137 47.1327 3.60067 47.187 3.5187C47.2383 3.43974 47.2756 3.35138 47.2973 3.25798C47.3192 3.16473 47.3303 3.06896 47.3304 2.97281C47.3357 2.80707 47.2958 2.64327 47.2156 2.50146V2.50304ZM45.9283 5.34295L45.7955 5.33743C45.7525 5.33743 45.7128 5.3327 45.6753 5.32915C45.6474 5.32767 45.6198 5.32223 45.5932 5.31298V4.26418H45.9669C46.0558 4.2642 46.1446 4.2696 46.2329 4.28035C46.3164 4.28965 46.3978 4.31448 46.4734 4.35372C46.5432 4.39017 46.603 4.44533 46.647 4.51386C46.6955 4.59854 46.7187 4.69706 46.7136 4.79627C46.7157 4.88173 46.6962 4.96621 46.6573 5.04082C46.6208 5.1089 46.5705 5.16739 46.5102 5.212C46.4456 5.2588 46.3737 5.29286 46.298 5.31258C46.2168 5.33453 46.1334 5.34553 46.0497 5.34532C46.0151 5.34401 45.9749 5.34243 45.9291 5.34059L45.9283 5.34295ZM45.5932 3.69422V2.67659C45.6509 2.66775 45.709 2.66235 45.7672 2.66042C45.8408 2.65687 45.9239 2.65489 46.0129 2.65489C46.0884 2.6546 46.1638 2.66187 46.238 2.67659C46.3056 2.68956 46.3705 2.71534 46.4296 2.75271C46.4856 2.78863 46.5323 2.83909 46.5654 2.89944C46.6016 2.97095 46.6193 3.0516 46.6165 3.13295C46.6206 3.26401 46.5687 3.38993 46.4756 3.47492C46.3779 3.56494 46.2638 3.63211 46.1405 3.67214C46.0889 3.68051 46.0368 3.68591 45.9846 3.68831C45.9213 3.69186 45.8662 3.69383 45.8183 3.69383H45.5932V3.69422ZM48.0487 4.81639C48.1025 5.0442 48.1972 5.25857 48.3275 5.44748C48.4517 5.62256 48.6143 5.76199 48.8009 5.85335C49.0136 5.95323 49.2441 6.00197 49.4762 5.99613C49.9056 6.02196 50.3214 5.83004 50.5991 5.47785C50.8872 5.04931 51.0273 4.5267 50.9956 3.99952C50.9982 3.72396 50.9673 3.44922 50.9036 3.18225C50.8498 2.95395 50.7542 2.73942 50.6223 2.55116C50.4967 2.37643 50.3333 2.23713 50.1463 2.14529C49.9354 2.04575 49.7066 1.99701 49.4762 2.0025C49.0458 1.97554 48.6288 2.16759 48.3507 2.52079C48.0642 2.95018 47.925 3.47263 47.9568 3.99952C47.954 4.27495 47.9849 4.54958 48.0487 4.81639ZM48.898 2.99213C49.1133 2.6717 49.5193 2.57709 49.8392 2.77283C49.9406 2.84336 50.0234 2.94059 50.0797 3.05524C50.145 3.18772 50.1908 3.33021 50.2155 3.47768C50.2452 3.64951 50.2597 3.82397 50.2589 3.99873C50.2845 4.35117 50.2134 4.70395 50.0544 5.0136C49.9251 5.2182 49.7064 5.33653 49.4762 5.32639C49.3522 5.33 49.2297 5.29581 49.1231 5.22778C49.0218 5.1591 48.9383 5.06414 48.8803 4.95168C48.8123 4.82096 48.7648 4.6792 48.7395 4.532C48.7077 4.35578 48.6923 4.17662 48.6935 3.99715C48.6701 3.64806 48.7414 3.29917 48.8987 2.99253L48.898 2.99213Z" fill="white"/>
<path fill-rule="evenodd" clip-rule="evenodd" d="M29.6657 7.84486C29.5149 7.62652 29.3051 7.44913 29.0576 7.33051C28.7867 7.20223 28.4955 7.1154 28.1951 7.07333C27.867 7.02442 27.5352 7.00013 27.2029 7.00069C27.002 7.00069 26.7994 7.0039 26.5952 7.01033C26.391 7.01676 26.1918 7.02651 25.9977 7.03959C25.8036 7.05268 25.6218 7.06886 25.4522 7.08814C25.2827 7.10742 25.1319 7.12681 25 7.14632V13.8432C25.1969 13.8845 25.3965 13.9137 25.5975 13.9306C25.8156 13.9501 26.0304 13.9647 26.2417 13.9744C26.453 13.984 26.6505 13.9888 26.834 13.9888H27.2862C27.6398 13.9896 27.9921 13.9505 28.3356 13.8724C28.6582 13.8015 28.9656 13.6801 29.2448 13.5134C29.508 13.355 29.727 13.1405 29.8839 12.8875C30.049 12.6104 30.1315 12.297 30.1228 11.98C30.1282 11.7456 30.0877 11.5122 30.0033 11.2914C29.9304 11.1078 29.8191 10.9395 29.6761 10.7963C29.5375 10.6605 29.3715 10.5517 29.1877 10.4762C28.9985 10.398 28.7995 10.3426 28.5954 10.3113V10.252C28.8104 10.2084 29.0147 10.1277 29.198 10.0141C29.3559 9.91515 29.4933 9.79022 29.6034 9.64542C29.7076 9.5059 29.7833 9.34962 29.8268 9.18443C29.8716 9.01946 29.8944 8.84993 29.8946 8.67972C29.9068 8.38658 29.8272 8.09647 29.6657 7.84486ZM27.0522 12.8678L26.782 12.8582C26.6953 12.855 26.614 12.8502 26.538 12.8437C26.482 12.8408 26.4266 12.831 26.3733 12.8145V10.9606H27.1318C27.3124 10.9607 27.4928 10.9703 27.6721 10.9895C27.8418 11.0059 28.007 11.0498 28.1605 11.1193C28.3023 11.1838 28.424 11.2814 28.5136 11.4026C28.6118 11.5525 28.659 11.7267 28.6489 11.9022C28.6529 12.0532 28.6135 12.2026 28.5346 12.3346C28.4594 12.4551 28.3564 12.5585 28.2331 12.6372C28.1019 12.72 27.9558 12.7801 27.8019 12.8148C27.6371 12.8535 27.4679 12.8728 27.298 12.8723C27.2278 12.8723 27.1458 12.8708 27.0522 12.8678ZM26.3733 9.95114V8.15505C26.4903 8.13945 26.6082 8.12991 26.7264 8.12647C26.8787 8.12005 27.045 8.11683 27.2251 8.11683C27.3785 8.11636 27.5316 8.12927 27.6825 8.15539C27.8198 8.17815 27.9518 8.22362 28.072 8.28966C28.1857 8.35308 28.2804 8.44224 28.3474 8.5489C28.4213 8.67532 28.4572 8.81808 28.4513 8.96203C28.4596 9.19377 28.3545 9.41643 28.1657 9.56693C27.9666 9.72439 27.7349 9.84162 27.4849 9.9112C27.3799 9.92609 27.2741 9.93574 27.1679 9.94012C27.0397 9.94655 26.9271 9.94976 26.8303 9.94976H26.3733V9.95114ZM31.4006 13.8917H32.8233V11.1062L33.5722 11.2308L35.2245 13.8903H36.8661L35.2035 11.2997L34.6945 10.9988C35.1399 10.8752 35.5301 10.6198 35.8065 10.271C36.0992 9.87216 36.245 9.39518 36.2219 8.91211C36.2346 8.5861 36.154 8.26283 35.9882 7.97568C35.8391 7.73287 35.6248 7.53055 35.3664 7.38869C35.0924 7.24141 34.7931 7.13961 34.4819 7.08779C34.1513 7.02942 33.8157 7.00014 33.4793 7.00035C33.3339 7.00035 33.1742 7.00356 33.0002 7.00999C32.8262 7.01641 32.6478 7.02617 32.465 7.03925C32.2815 7.05233 32.0979 7.07012 31.9144 7.09261C31.7308 7.1151 31.5588 7.13932 31.3984 7.16525V13.8917H31.4006ZM34.4347 8.43219C34.6342 8.60946 34.7406 8.85944 34.7258 9.11627C34.7585 9.43144 34.627 9.74206 34.3724 9.95114C34.096 10.131 33.7634 10.2198 33.427 10.2035H32.8233V8.2332C32.9307 8.20982 33.0403 8.19678 33.1506 8.1943C33.2924 8.18787 33.4361 8.18466 33.5818 8.18466C33.8893 8.16396 34.1939 8.25235 34.4347 8.43219ZM37.9155 13.8917H42.2797V12.7074H39.3392V11.0477H41.9679V9.86369H39.3392V8.28002H42.2277V7.09743H37.9155V13.8917ZM47.7659 13.8917H49.2615L46.6447 7.04889H45.5943L42.9756 13.8914H44.3994L44.95 12.3869H47.1839L47.7659 13.8917ZM45.8434 9.81515L46.0616 8.73791H46.1136L46.3318 9.80516L46.8721 11.32H45.3138L45.8434 9.81515ZM54.0939 13.8917H55.8497L53.4286 10.6986L52.847 10.3199L53.408 9.95114L55.5272 7.09743H53.9055L51.9001 9.97042L51.5684 10.1064V7.09743H50.1461V13.8917H51.5695V10.9898H51.9436L54.0939 13.8917ZM56.8471 13.8917H61.2113V12.7074H58.2709V11.0477H60.8995V9.86369H58.2709V8.28002H61.1594V7.09743H56.8471V13.8917ZM62.5308 13.8917H63.9542V11.1062L64.7024 11.2308L66.3547 13.8903H67.9964L66.3337 11.2997L65.8247 10.9988C66.27 10.8752 66.6601 10.6198 66.9364 10.271C67.2294 9.87228 67.3753 9.39524 67.3521 8.91211C67.3648 8.5861 67.2842 8.26283 67.1184 7.97568C66.9688 7.73252 66.7539 7.53007 66.4948 7.38834C66.2207 7.24118 65.9215 7.13938 65.6102 7.08745C65.2796 7.02906 64.9438 6.99978 64.6074 7C64.4621 7 64.3025 7.00344 64.1282 7.00964C63.9539 7.01584 63.7762 7.02582 63.593 7.0389C63.4099 7.05199 63.2245 7.06955 63.0424 7.09227C62.8603 7.11499 62.6871 7.13943 62.5264 7.16491V13.8917H62.5308ZM65.5649 8.43219C65.7643 8.60953 65.8705 8.85949 65.8557 9.11627C65.8885 9.43139 65.7571 9.74203 65.5026 9.95114C65.2261 10.131 64.8934 10.2198 64.5569 10.2035H63.9542V8.2332C64.0616 8.20987 64.1713 8.19684 64.2815 8.1943C64.4234 8.18775 64.5675 8.18466 64.7128 8.18466C65.02 8.16417 65.3243 8.25255 65.5649 8.43219ZM69.4614 10.2913L69.7316 11.875H70.5837L70.8535 10.2913V7.09743H69.4614V10.2906V10.2913ZM69.5444 13.795C69.7083 13.9349 69.9251 14.0083 70.147 13.9988C70.3755 14.0105 70.5997 13.9372 70.7706 13.795C70.9259 13.6523 71.009 13.4547 70.9991 13.2514C71.0097 13.0494 70.9264 12.853 70.7706 12.7126C70.5982 12.5733 70.3746 12.5019 70.147 12.5136C69.926 12.5039 69.7097 12.5753 69.5444 12.7126C69.3886 12.853 69.3053 13.0494 69.3158 13.2514C69.3061 13.4545 69.3891 13.652 69.5444 13.7946V13.795Z" fill="white"/>
</svg>

<svg width="95" height="15" viewBox="0 0 95 15" fill="none" xmlns="http://www.w3.org/2000/svg"><path fill-rule="evenodd" clip-rule="evenodd" d="M27.397 5.151c-.086.055-.18.098-.276.126a1.321 1.321 0 0 1-.389.05.875.875 0 0 1-.744-.366 1.204 1.204 0 0 1-.187-.418 2.215 2.215 0 0 1-.061-.541 1.608 1.608 0 0 1 .257-1.006.83.83 0 0 1 .683-.325c.131-.001.262.008.392.028.096.015.19.044.278.088l.138-.637a1.804 1.804 0 0 0-.35-.104 2.618 2.618 0 0 0-.52-.043c-.194 0-.387.034-.572.1a1.4 1.4 0 0 0-.52.336 1.73 1.73 0 0 0-.378.614 2.671 2.671 0 0 0-.147.947 2.88 2.88 0 0 0 .13.924c.074.232.194.443.35.62a1.3 1.3 0 0 0 .51.346c.196.072.403.108.61.107.175 0 .35-.018.52-.055.15-.027.292-.088.417-.179l-.14-.612zm.322-.492h1.285v-.631h-1.285v.63zm4.282.493a1.096 1.096 0 0 1-.276.127 1.321 1.321 0 0 1-.389.049.875.875 0 0 1-.744-.366 1.204 1.204 0 0 1-.187-.417 2.21 2.21 0 0 1-.061-.542 1.608 1.608 0 0 1 .258-1.006.83.83 0 0 1 .683-.324c.13-.002.261.007.39.027a.96.96 0 0 1 .28.088l.138-.636a1.813 1.813 0 0 0-.35-.105 2.616 2.616 0 0 0-.52-.043c-.195 0-.388.035-.573.101-.194.07-.371.184-.52.335a1.73 1.73 0 0 0-.378.614 2.671 2.671 0 0 0-.147.947 2.88 2.88 0 0 0 .13.925c.074.23.194.442.35.62a1.3 1.3 0 0 0 .51.345c.197.072.403.108.611.107.175 0 .349-.018.52-.054.149-.028.29-.09.417-.18L32 5.152zm.323-.493h1.284v-.631h-1.284v.63zm4.282.493c-.087.055-.18.098-.277.127a1.321 1.321 0 0 1-.389.049.875.875 0 0 1-.744-.366 1.204 1.204 0 0 1-.186-.417 2.21 2.21 0 0 1-.062-.542 1.608 1.608 0 0 1 .258-1.006.83.83 0 0 1 .683-.324c.13-.002.261.007.391.027.096.015.19.044.279.088l.138-.636a1.813 1.813 0 0 0-.35-.105 2.616 2.616 0 0 0-.52-.043c-.195 0-.388.035-.573.101-.194.07-.37.184-.52.335a1.73 1.73 0 0 0-.378.614 2.671 2.671 0 0 0-.147.947 2.88 2.88 0 0 0 .13.925c.074.23.194.442.351.62a1.3 1.3 0 0 0 .509.345c.197.072.403.108.611.107.175 0 .349-.018.52-.054.149-.028.291-.09.417-.18l-.142-.612zm.514-.334c.054.228.149.442.28.631.123.175.286.315.473.406.212.1.443.149.675.143a1.33 1.33 0 0 0 1.123-.519c.288-.428.428-.95.396-1.478a3.36 3.36 0 0 0-.092-.817 1.832 1.832 0 0 0-.281-.631 1.282 1.282 0 0 0-.476-.406c-.21-.1-.44-.148-.67-.143a1.328 1.328 0 0 0-1.126.518c-.286.43-.425.952-.393 1.48-.003.274.029.548.093.814l-.002.002zm.85-1.825a.69.69 0 0 1 .942-.22.74.74 0 0 1 .24.283c.066.132.111.275.136.422.03.172.045.346.044.521.025.353-.046.705-.205 1.015a.652.652 0 0 1-.578.313.622.622 0 0 1-.353-.099.749.749 0 0 1-.243-.276 1.447 1.447 0 0 1-.14-.42 2.877 2.877 0 0 1-.047-.534c-.023-.35.048-.699.205-1.005zm5.506 2.928h.701V2.079h-.634l-.906 1.745-.153.45h-.02l-.17-.44-.956-1.755h-.64v3.842h.666V3.922l-.103-.757h.026l.225.61.803 1.437h.226l.762-1.432.22-.615h.031l-.077.763V5.92zm3.74-3.418a.8.8 0 0 0-.3-.29 1.33 1.33 0 0 0-.424-.146 2.857 2.857 0 0 0-.489-.04 8.265 8.265 0 0 0-.593.022 5.759 5.759 0 0 0-.491.06v3.787a2.1 2.1 0 0 0 .294.05 6.452 6.452 0 0 0 .609.033h.22c.174 0 .348-.022.517-.066.159-.04.31-.109.448-.203a1.011 1.011 0 0 0 .432-.868 1.155 1.155 0 0 0-.059-.39.836.836 0 0 0-.161-.28.75.75 0 0 0-.237-.184 1.142 1.142 0 0 0-.291-.093v-.033a.801.801 0 0 0 .606-.604 1.24 1.24 0 0 0 .033-.285.9.9 0 0 0-.114-.472v.002zm-1.288 2.84l-.133-.006c-.043 0-.082-.004-.12-.008a.298.298 0 0 1-.082-.016V4.264h.374c.089 0 .178.006.266.016.083.01.165.034.24.074a.46.46 0 0 1 .174.16.516.516 0 0 1 .067.282.503.503 0 0 1-.204.416.634.634 0 0 1-.212.1.942.942 0 0 1-.248.033 53.298 53.298 0 0 1-.12-.004l-.002.002zm-.335-1.649V2.677a1.47 1.47 0 0 1 .174-.017c.074-.003.157-.005.246-.005.075 0 .15.007.225.022a.554.554 0 0 1 .192.076.405.405 0 0 1 .135.146.481.481 0 0 1 .052.234.445.445 0 0 1-.141.342.91.91 0 0 1-.335.197 1.366 1.366 0 0 1-.156.016 3.024 3.024 0 0 1-.167.006h-.225zm2.456 1.122c.053.228.148.443.279.631.124.176.286.315.473.406.213.1.443.149.675.143a1.33 1.33 0 0 0 1.123-.518c.288-.429.428-.951.397-1.478a3.385 3.385 0 0 0-.092-.818 1.832 1.832 0 0 0-.282-.63 1.287 1.287 0 0 0-.476-.407c-.21-.1-.44-.148-.67-.143a1.328 1.328 0 0 0-1.125.519c-.287.43-.426.952-.394 1.479-.003.275.028.55.092.816zm.849-1.824a.69.69 0 0 1 .941-.22.74.74 0 0 1 .24.283c.066.133.112.275.136.423.03.172.045.346.044.52.026.353-.046.706-.205 1.016a.652.652 0 0 1-.578.312.622.622 0 0 1-.353-.098.745.745 0 0 1-.243-.276 1.437 1.437 0 0 1-.14-.42 2.903 2.903 0 0 1-.047-.535 1.918 1.918 0 0 1 .206-1.004h-.001zM29.666 7.845a1.552 1.552 0 0 0-.608-.514 2.983 2.983 0 0 0-.863-.258 6.655 6.655 0 0 0-.992-.072 19.31 19.31 0 0 0-1.205.039 11.98 11.98 0 0 0-.998.106v6.697c.197.041.396.07.598.088a14.918 14.918 0 0 0 1.236.058h.452c.354 0 .706-.039 1.05-.117.322-.07.63-.192.909-.359.263-.158.482-.373.639-.626a1.68 1.68 0 0 0 .239-.907 1.81 1.81 0 0 0-.12-.689 1.469 1.469 0 0 0-.815-.815 2.571 2.571 0 0 0-.593-.165v-.059c.215-.044.42-.124.603-.238a1.52 1.52 0 0 0 .405-.369c.105-.14.18-.295.224-.46.045-.166.067-.335.068-.505a1.433 1.433 0 0 0-.23-.835zm-2.614 5.023l-.27-.01a5.064 5.064 0 0 1-.244-.014.675.675 0 0 1-.165-.03v-1.853h.759c.18 0 .36.01.54.028.17.017.335.06.488.13a.903.903 0 0 1 .354.284c.098.15.145.324.135.5a.8.8 0 0 1-.114.432.969.969 0 0 1-.302.302 1.375 1.375 0 0 1-.431.178 2.177 2.177 0 0 1-.504.057c-.07 0-.152-.001-.246-.004zm-.679-2.917V8.155c.117-.016.235-.025.353-.029.153-.006.319-.01.5-.01.152 0 .306.013.457.04.137.022.269.068.389.134a.763.763 0 0 1 .275.259c.074.126.11.27.104.413a.74.74 0 0 1-.285.605c-.2.157-.431.275-.681.344-.105.015-.21.025-.317.03-.128.006-.24.009-.338.009h-.457v.001zm5.028 3.94h1.422v-2.785l.75.125 1.651 2.66h1.642L35.203 11.3l-.509-.301a2.148 2.148 0 0 0 1.112-.728c.293-.399.439-.876.416-1.359a1.735 1.735 0 0 0-.234-.936 1.67 1.67 0 0 0-.622-.587 2.862 2.862 0 0 0-.884-.301A5.747 5.747 0 0 0 33.479 7a13.051 13.051 0 0 0-1.014.04 13.617 13.617 0 0 0-1.067.126v6.726h.003zm3.034-5.459a.85.85 0 0 1 .29.684.953.953 0 0 1-.353.835c-.276.18-.609.269-.945.252h-.604v-1.97a1.72 1.72 0 0 1 .328-.039c.141-.006.285-.01.43-.01.308-.02.613.068.854.248zm3.48 5.46h4.365v-1.185h-2.94v-1.66h2.628V9.865h-2.629V8.28h2.889V7.097h-4.313v6.795zm9.85 0h1.496l-2.616-6.843h-1.05l-2.62 6.842H44.4l.551-1.504h2.234l.582 1.505zm-1.922-4.077l.219-1.077h.052l.218 1.067.54 1.515h-1.558l.53-1.505zm8.25 4.077h1.757l-2.421-3.193-.582-.38.561-.368 2.12-2.854h-1.622L51.9 9.97l-.332.136V7.097h-1.422v6.795h1.423V10.99h.375l2.15 2.902zm2.754 0h4.364v-1.185h-2.94v-1.66H60.9V9.865h-2.63V8.28h2.89V7.097h-4.313v6.795zm5.684 0h1.423v-2.786l.748.125 1.653 2.66h1.641L66.334 11.3l-.51-.301a2.147 2.147 0 0 0 1.112-.728 2.12 2.12 0 0 0 .416-1.359 1.735 1.735 0 0 0-.234-.936 1.67 1.67 0 0 0-.623-.588 2.868 2.868 0 0 0-.885-.3A5.746 5.746 0 0 0 64.607 7a13.61 13.61 0 0 0-1.014.039c-.183.013-.369.03-.55.053a15.82 15.82 0 0 0-.517.073v6.727h.005zm3.034-5.46a.85.85 0 0 1 .29.684.953.953 0 0 1-.352.835c-.277.18-.61.269-.946.252h-.603v-1.97a1.73 1.73 0 0 1 .327-.039c.142-.006.286-.01.432-.01.307-.02.611.069.852.248zm3.896 1.86l.27 1.583h.853l.27-1.584V7.097H69.46v3.194zm.083 3.503c.164.14.381.213.603.204a.905.905 0 0 0 .624-.204.692.692 0 0 0 .228-.544.677.677 0 0 0-.228-.538.92.92 0 0 0-.624-.2.884.884 0 0 0-.603.2.678.678 0 0 0-.228.538.693.693 0 0 0 .228.544z" fill="#fff"/></svg>
